X:542
T:The Banks of Dunmore
M:6/8
L:1/8
Q:110
B:O'Neill's 542
N:"With feeling"
Z:Transcribed by Dave Wooldridge
K:G
(G/2B/2) \
| ed(e/2d/2) B(G/2B/2A/2G/2) | EDD D2 (G/2B/2) | ed(B/2G/2) BAA | (A3 A2) (G/2B/2) |
ed(e/2d/2) B(G/2B/2A/2G/2) | EDD D2 (G/2B/2) | ed (B/2G/2) AGG | (G3 G2) ||
(B/2A/2) \
| Bd(e/2f/2) gf(e/2d/2) | Bdd d2 (e/2f/2) | gf(e/2d/2) Bd (3fed | (e3 e2) (3d/2e/2f/2 |
g2 (ef)(ge) dG (A/2G/2) | EDD D2 (G/2B/2) | ed (B/2G/2) AGG | (G3 G2) ||


